installer/icon-pack-soulsy/spell_vampire.svg

<?xml version="1.0" encoding="UTF-8"?>
<svg width="512pt" height="512pt" version="1.1" viewBox="0 0 512 512" xmlns="http://www.w3.org/2000/svg">
 <g fill="#fff">
  <path d="m241.12 238.96c9.5508-3.8281 20.207-3.8281 29.758 0 5.25-4.1484 8.5273-10.297 9.0469-16.965 0.51953-6.6719-1.7656-13.254-6.3086-18.164-4.543-4.9102-10.93-7.7031-17.617-7.7031s-13.074 2.793-17.617 7.7031c-4.543 4.9102-6.8281 11.492-6.3086 18.164 0.51953 6.668 3.7969 12.816 9.0469 16.965z"/>
  <path d="m256 244.08c-8.4609 0.015625-16.574 3.3828-22.559 9.3633-5.9492 6.0469-9.332 14.156-9.4414 22.637v40c0 11.434 6.0977 22 16 27.715 9.9023 5.7148 22.098 5.7148 32 0 9.9023-5.7148 16-16.281 16-27.715v-40c0.035156-4.5078-0.94922-8.9648-2.8789-13.039-2.5117-5.6289-6.5977-10.414-11.762-13.777-5.168-3.3633-11.195-5.1602-17.359-5.1836z"/>
  <path d="m448 164.16c-81.441-5.0391-140.56 67.84-157.76 91.359 3.7891 6.1875 5.7812 13.305 5.7617 20.559v11.359c22.48-30.879 81.602-31.039 82.879-31.039-4.4805-47.84 69.121-92.238 69.121-92.238z"/>
  <path d="m64 164.16s73.602 44.398 69.121 92.238c1.2812 0 60.398 0 82.879 31.039v-11.359c-0.019531-7.2539 1.9727-14.371 5.7617-20.559-17.203-23.52-76.32-96.398-157.76-91.359z"/>
 </g>
</svg>

<?xml version="1.0" encoding="UTF-8" standalone="no"?>
<!DOCTYPE svg PUBLIC "-//W3C//DTD SVG 1.1//EN" "http://www.w3.org/Graphics/SVG/1.1/DTD/svg11.dtd">
<svg width="100%" height="100%" viewBox="0 0 512 512" version="1.1" xmlns="http://www.w3.org/2000/svg" xmlns:xlink="http://www.w3.org/1999/xlink" xml:space="preserve" xmlns:serif="http://www.serif.com/" style="fill-rule:evenodd;clip-rule:evenodd;stroke-linejoin:round;stroke-miterlimit:2;">
    <g transform="matrix(1.33333,0,0,1.33333,-85.333,-85.3268)">
        <path d="M241.12,238.96C250.671,235.132 261.327,235.132 270.878,238.96C276.128,234.812 279.405,228.663 279.925,221.995C280.444,215.323 278.159,208.741 273.616,203.831C269.073,198.921 262.686,196.128 255.999,196.128C249.312,196.128 242.925,198.921 238.382,203.831C233.839,208.741 231.554,215.323 232.074,221.995C232.593,228.663 235.871,234.811 241.121,238.96L241.12,238.96Z" style="fill:white;fill-rule:nonzero;"/>
        <path d="M256,244.08C247.539,244.096 239.426,247.463 233.441,253.443C227.492,259.49 224.109,267.599 224,276.08L224,316.08C224,327.514 230.097,338.08 240,343.795C249.902,349.51 262.098,349.51 272,343.795C281.902,338.08 288,327.514 288,316.08L288,276.08C288.035,271.573 287.05,267.116 285.121,263.041C282.609,257.412 278.523,252.627 273.359,249.264C268.191,245.901 262.164,244.104 256,244.081L256,244.08Z" style="fill:white;fill-rule:nonzero;"/>
        <path d="M448,164.16C366.559,159.121 307.44,232 290.24,255.519C294.029,261.707 296.021,268.824 296.002,276.078L296.002,287.437C318.482,256.558 377.604,256.398 378.881,256.398C374.4,208.558 448.002,164.16 448.002,164.16L448,164.16Z" style="fill:white;fill-rule:nonzero;"/>
        <path d="M64,164.16C64,164.16 137.602,208.558 133.121,256.398C134.402,256.398 193.519,256.398 216,287.437L216,276.078C215.98,268.824 217.973,261.707 221.762,255.519C204.559,231.999 145.442,159.121 64.002,164.16L64,164.16Z" style="fill:white;fill-rule:nonzero;"/>
    </g>
</svg>
